src/assets/images/icons/Advance.svg

<svg xmlns="http://www.w3.org/2000/svg" width="16" height="16" viewBox="0 0 16 16">
  <path fill="#222222" fill-rule="evenodd" d="M11.5857864,7 L2.00684547,7 C1.45078007,7 1,7.44386482 1,8 C1,8.55228475 1.44994876,9 2.00684547,9 L11.5857864,9 L6.92567778,13.6601087 C6.53695085,14.0488356 6.53568523,14.6778209 6.92893219,15.0710678 C7.31945648,15.4615921 7.95824235,15.4559712 8.33989134,15.0743222 L14.7071068,8.70710678 L14.7068323,8.70683232 C14.8880183,8.52648242 15,8.27718618 15,8 C15,7.72428692 14.8878623,7.47463499 14.7062623,7.2937377 L14.7071068,7.29289322 L8.33989134,0.925677777 C7.95116441,0.536950847 7.32217914,0.535685233 6.92893219,0.928932188 C6.5384079,1.31945648 6.54402879,1.95824235 6.92567778,2.33989134 L11.5857864,7 Z"/>
</svg>

<svg xmlns="http://www.w3.org/2000/svg" width="16" height="16" viewBox="0 0 16 16"><path fill-rule="evenodd" d="M11.586 7h-9.58C1.452 7 1 7.444 1 8c0 .552.45 1 1.007 1h9.579l-4.66 4.66a.995.995 0 0 0 .003 1.411c.39.39 1.03.385 1.41.003l6.368-6.367a.994.994 0 0 0 0-1.413v-.001L8.34.926a.995.995 0 0 0-1.411.003c-.39.39-.385 1.03-.003 1.41L11.586 7z"/></svg>
